packages/foundations/assets/icons/functional/images/security/lock_open_24.svg

<svg width="24" height="24" viewBox="0 0 24 24" fill="none" xmlns="http://www.w3.org/2000/svg">
<g clip-path="url(#clip0_187_254)">
<path fill-rule="evenodd" clip-rule="evenodd" d="M12.0006 2.49936C14.2967 2.49936 16.2807 4.06024 16.8427 6.2544C16.9797 6.78942 16.657 7.33421 16.122 7.47124C15.587 7.60826 15.0422 7.28562 14.9052 6.75061C14.5685 5.43616 13.3778 4.49936 12.0006 4.49936C10.404 4.49936 9.00675 5.77503 9.00255 7.49744C9.00092 8.1647 9.00085 8.83201 9.00233 9.49936H17.0006C18.1052 9.49936 19.0006 10.3948 19.0006 11.4994V19.5007C19.0006 20.6052 18.1052 21.5007 17.0006 21.5007H6.99933C5.89476 21.5007 4.99933 20.6052 4.99933 19.5007V11.4994C4.99933 10.445 5.83009 9.49936 7.00233 9.49936C7.00033 8.88257 7.0004 8.21526 7.00255 7.49744C7.00255 4.73707 9.24027 2.49936 12.0006 2.49936ZM17.0006 19.5007V11.4994H6.99933V19.5007H17.0006ZM12.0006 13.4994C12.5135 13.4994 12.9988 13.9166 13.0006 14.4994C13.0027 15.1658 13.0027 15.8324 13.0006 16.4994C13.0006 17.0516 12.5529 17.4994 12.0006 17.4994C11.4878 17.4994 11.0025 17.0844 11.0006 16.4994C10.9985 15.8329 10.9985 15.1663 11.0006 14.4994C11.0006 13.9471 11.4483 13.4994 12.0006 13.4994Z" fill="#1A1C1F"/>
</g>
<defs>
<clipPath id="clip0_187_254">
<rect width="24" height="24" fill="white"/>
</clipPath>
</defs>
</svg>

<svg xmlns="http://www.w3.org/2000/svg" width="24" height="24" fill="none"><g clip-path="url(#a)"><path fill="#1A1C1F" fill-rule="evenodd" d="M12 2.5a5 5 0 0 1 4.843 3.754 1 1 0 0 1-1.938.497 3 3 0 0 0-5.902.746Q9 8.5 9.003 9.5H17a2 2 0 0 1 2 2v8.002a2 2 0 0 1-2 2H6.999a2 2 0 0 1-2-2v-8.002c0-1.054.831-2 2.003-2q-.003-.925 0-2.002A5 5 0 0 1 12.002 2.5m5 17v-8H7v8zm-5-6c.514 0 .999.417 1 1q.005.999 0 2a1 1 0 1 1-2 0q-.003-1 0-2a1 1 0 0 1 1-1" clip-rule="evenodd"/></g><defs><clipPath id="a"><path fill="#fff" d="M0 0h24v24H0z"/></clipPath></defs></svg>
